elusive/address-book.svg

<?xml version="1.0" encoding="UTF-8" standalone="no"?>
<!-- Generator: IcoMoon.io -->

<svg
   xmlns:dc="http://purl.org/dc/elements/1.1/"
   xmlns:cc="http://creativecommons.org/ns#"
   xmlns:rdf="http://www.w3.org/1999/02/22-rdf-syntax-ns#"
   xmlns:svg="http://www.w3.org/2000/svg"
   xmlns="http://www.w3.org/2000/svg"
   xmlns:sodipodi="http://sodipodi.sourceforge.net/DTD/sodipodi-0.dtd"
   xmlns:inkscape="http://www.inkscape.org/namespaces/inkscape"
   id="svg2"
   data-tags="remove-circle, cancel, close, remove, delete"
   height="1200"
   viewBox="0 0 1200 1200"
   width="1200"
   version="1.1"
   data-du=""
   inkscape:version="0.48.4 r9939"
   sodipodi:docname="address-book.svg">
  <defs
     id="defs33" />
  <sodipodi:namedview
     pagecolor="#ffffff"
     bordercolor="#666666"
     borderopacity="1"
     objecttolerance="10"
     gridtolerance="10"
     guidetolerance="10"
     inkscape:pageopacity="0"
     inkscape:pageshadow="2"
     inkscape:window-width="1535"
     inkscape:window-height="876"
     id="namedview31"
     showgrid="false"
     inkscape:zoom="0.26339286"
     inkscape:cx="-519.59322"
     inkscape:cy="448"
     inkscape:window-x="65"
     inkscape:window-y="24"
     inkscape:window-maximized="1"
     inkscape:current-layer="svg2" />
  <metadata
     id="metadata62">
    <rdf:RDF>
      <cc:Work
         rdf:about="">
        <dc:format>image/svg+xml</dc:format>
        <dc:type
           rdf:resource="http://purl.org/dc/dcmitype/StillImage" />
        <dc:title />
      </cc:Work>
    </rdf:RDF>
  </metadata>
  <path
     id="path3524"
     d="m 0.0078124,0.01484356 0,1199.98435644 935.0971976,0 134.23109,0 130.6639,0 0,-212.43471 -130.6639,0 0,-116.8313 130.6639,0 0,-212.35661 -130.6639,0 0,-116.83129 130.6639,0 0,-212.26286 -130.6639,0 0,-116.83129 130.6639,0 L 1199.984,7.8124e-4 H 1069.3142 935.0972 0 z M 534.67273,209.57462 c 95.78469,0 173.37274,77.68023 173.37274,173.46649 0,67.88036 -38.96824,126.62491 -95.78,155.10892 L 834.2782,671.07642 h 2.69684 v 1.13092 186.34133 H 232.27979 v -186.34133 -1.13092 h 2.78371 L 456.98249,538.15003 c -56.81176,-28.48401 -95.78001,-87.22856 -95.78001,-155.10892 0,-95.78469 77.68024,-173.46649 173.4665,-173.46649 z"
     inkscape:connector-curvature="0" />
</svg>

<?xml version="1.0" encoding="utf-8"?>
<!-- Generator: Adobe Illustrator 16.0.0, SVG Export Plug-In . SVG Version: 6.00 Build 0)  -->
<!DOCTYPE svg PUBLIC "-//W3C//DTD SVG 1.1//EN" "http://www.w3.org/Graphics/SVG/1.1/DTD/svg11.dtd">
<svg version="1.1"
	 id="svg2" xmlns:dc="http://purl.org/dc/elements/1.1/" xmlns:cc="http://creativecommons.org/ns#" xmlns:rdf="http://www.w3.org/1999/02/22-rdf-syntax-ns#" xmlns:svg="http://www.w3.org/2000/svg" xmlns:sodipodi="http://sodipodi.sourceforge.net/DTD/sodipodi-0.dtd" xmlns:inkscape="http://www.inkscape.org/namespaces/inkscape" sodipodi:docname="address-book.svg" inkscape:version="0.48.4 r9939"
	 xmlns="http://www.w3.org/2000/svg" xmlns:xlink="http://www.w3.org/1999/xlink" x="0px" y="0px" width="1200px" height="1200px"
	 viewBox="0 0 1200 1200" enable-background="new 0 0 1200 1200" xml:space="preserve">
<sodipodi:namedview  inkscape:cy="448" inkscape:cx="-519.59322" inkscape:zoom="0.26339286" showgrid="false" id="namedview31" guidetolerance="10" gridtolerance="10" objecttolerance="10" borderopacity="1" bordercolor="#666666" pagecolor="#ffffff" inkscape:current-layer="svg2" inkscape:window-maximized="1" inkscape:window-y="24" inkscape:window-height="876" inkscape:window-width="1535" inkscape:pageshadow="2" inkscape:pageopacity="0" inkscape:window-x="65">
	</sodipodi:namedview>
<path id="path3524" inkscape:connector-curvature="0" d="M0.008,0.015v1199.984h935.098h134.23H1200V987.564h-130.664V870.733H1200
	V658.377h-130.664V541.545H1200V329.282h-130.664V212.451H1200l-0.016-212.45h-130.67H935.098H0L0.008,0.015z M534.673,209.575
	c95.784,0,173.373,77.68,173.373,173.466c0,67.881-38.969,126.625-95.78,155.109l222.013,132.926h2.696v1.131v186.342H232.28
	V672.207v-1.131h2.784L456.982,538.15c-56.812-28.484-95.78-87.229-95.78-155.109c0-95.785,77.68-173.466,173.466-173.466H534.673z"
	/>
</svg>
